packages/kaspersky-hexa-ui-icons/src/iconsSVGs/24/FontItalic.svg

<svg width="24" height="24" viewBox="0 0 24 24" fill="none" xmlns="http://www.w3.org/2000/svg">
<path d="M17.4001 2.55005H9.3001V3.90005H10.8199C11.2427 3.90005 11.5614 4.2843 11.4833 4.69982L8.79375 18.9996C8.67372 19.6378 8.11637 20.1 7.46701 20.1H6.6001V21.4501H13.3501V20.1H12.4516C12.0288 20.1 11.71 19.7158 11.7882 19.3003L14.4777 5.00051C14.5977 4.36235 15.1551 3.90005 15.8044 3.90005H17.4001V2.55005Z" fill="black"/>
</svg>

<svg xmlns="http://www.w3.org/2000/svg" width="24" height="24" fill="none" viewBox="0 0 24 24"><path fill="#000" d="M17.4001 2.55h-8.1V3.9h1.5198c.4228 0 .7415.3843.6634.7998L8.7937 18.9996A1.35 1.35 0 0 1 7.467 20.1h-.8669v1.3501h6.75V20.1h-.8985c-.4228 0-.7416-.3842-.6634-.7997l2.6895-14.2998a1.35 1.35 0 0 1 1.3267-1.1004h1.5957z"/></svg>
